X:85
T:President Garfield's hornpipe
R:reel
C:traditional
M:4/4
L:1/8
Q:1/4=200
K:Bb
FG|:"Bb" BFDF BFDF| BABc dcd=e|"F"fcAc fcAc| f=efg f_edc|
"Bb"BFDF BFDF|BABc dcd=e|"F"fgag fedc|
"Bb"Bbfd B2 F-G:|2"Bb"B2 D2 B2 b-a|
|:"Eb"geBG EGBg|"Bb"fdBF DFBf| "F"eAgf eAgf|"Bb"dBgf dBba|
"Eb"geBG EGBg|"Bb"fdBF DFBf|"F"efag fedc|
"Bb"Bbfd B2 b-a:|2"Bb"B2 d2B2|
